X: 52
T:Cock of the North
% Nottingham Music Database
S:Kevin Briggs, via EF
M:6/8
K:A
P:A
e/2d/2|"A"cdc cBA|"A"Ace "D"f2e|"A"cdc cBA|"B7"BcB "E7"Bed|
"A"cdc cBA|"A"Ace "D"f2e|"A"c2c "E7"BcB|"A"A3 A2:|
P:B
(3e/2f/2g/2|"A"a2e "D"f2e|"A"a2e "D"f2e|"A"cdc cBA|"Bm"Bcd "E7"efg|
"A"a2e "D"f2e|"A"a2e "D"f2e|"A"c2c "E7"BcB|"A"A3 A2:|<end>
<start>
